apps/symbolic/gnome-disks-state-standby0symbolic.svg

<svg height="24" viewBox="0 0 24 24" width="24" xmlns="http://www.w3.org/2000/svg"><path d="m21 12h-4.909091v-1.636363l2.773636-3.2727279h-2.773636v-1.6363636h4.909091v1.6363636l-2.765455 3.2727279h2.765455zm-6.545455 3.272728h-4.9090905v-1.636364l2.7736365-3.272727h-2.7736365v-1.6363644h4.9090905v1.6363644l-2.765454 3.272727h2.765454zm-6.5454541 3.272727h-4.9090909v-1.636364l2.7736364-3.272727h-2.7736364v-1.636364h4.9090909v1.636364l-2.7654545 3.272727h2.7654545z" fill="#bebebe" stroke-width=".818182"/></svg>

<?xml version="1.0" encoding="UTF-8" standalone="no"?>
<svg
   xmlns:dc="http://purl.org/dc/elements/1.1/"
   xmlns:cc="http://creativecommons.org/ns#"
   xmlns:rdf="http://www.w3.org/1999/02/22-rdf-syntax-ns#"
   xmlns:svg="http://www.w3.org/2000/svg"
   xmlns="http://www.w3.org/2000/svg"
   xmlns:sodipodi="http://sodipodi.sourceforge.net/DTD/sodipodi-0.dtd"
   xmlns:inkscape="http://www.inkscape.org/namespaces/inkscape"
   version="1.1"
   width="24"
   height="24"
   viewBox="0 0 24 24"
   id="svg2"
   inkscape:version="0.92.1 r15371"
   sodipodi:docname="gnome-disks-state-standby0symbolic.svg">
  <metadata
     id="metadata10">
    <rdf:RDF>
      <cc:Work
         rdf:about="">
        <dc:format>image/svg+xml</dc:format>
        <dc:type
           rdf:resource="http://purl.org/dc/dcmitype/StillImage" />
      </cc:Work>
    </rdf:RDF>
  </metadata>
  <defs
     id="defs8" />
  <sodipodi:namedview
     pagecolor="#ffffff"
     bordercolor="#666666"
     borderopacity="1"
     objecttolerance="10"
     gridtolerance="10"
     guidetolerance="10"
     inkscape:pageopacity="0"
     inkscape:pageshadow="2"
     inkscape:window-width="640"
     inkscape:window-height="480"
     id="namedview6"
     showgrid="false"
     inkscape:zoom="25.291667"
     inkscape:cx="5.0411862"
     inkscape:cy="12"
     inkscape:current-layer="svg2" />
  <path
     d="M 21,12 H 16.090909 V 10.363637 L 18.864545,7.0909091 H 16.090909 V 5.4545455 H 21 V 7.0909091 L 18.234545,10.363637 H 21 V 12 m -6.545455,3.272728 H 9.5454545 V 13.636364 L 12.319091,10.363637 H 9.5454545 V 8.7272726 h 4.9090905 v 1.6363644 l -2.765454,3.272727 h 2.765454 v 1.636364 M 7.9090909,18.545455 H 3 V 16.909091 L 5.7736364,13.636364 H 3 V 12 h 4.9090909 v 1.636364 l -2.7654545,3.272727 h 2.7654545 z"
     id="path4"
     style="fill:#bebebe;fill-opacity:1;stroke-width:0.81818181"
     inkscape:connector-curvature="0" />
</svg>
